X: 1
T:I'm a man you don't meet every day
T:Jock Stuart
M:3/4
L:1/8
Q:1/4=130
C:Trad.
O:Scottish/Irish?
K:D
D-E|"D"F2A2A-F|"G"E2D2DE|"D"F2d2c2|"G"B4dd|
    "D"d2A2F2|"G"ED3DE|"D"(F3GF2|"A"E4)D"Ch:"E||
    "D"F2A2F2|"G"D4DE|"D"F2d2c2|"G"B4dd|
    "D"d3AF2|"A"E4"G"DE|"D"D4|]
